X:1
T:Riley, 77.77 D
T:Riley, 77.77 D
T:Martin Fallas Shaw, 1915
T:Public Domain Courtesy of the Cyber Hymnal™
C:Martin Fallas Shaw, 1915
Z:Public Domain
Z:Courtesy of the Cyber Hymnal™
%%score ( 1 2 ) ( 3 4 )
L:1/8
Q:1/4=115
M:4/4
K:G
V:1 treble 
V:2 treble 
V:3 bass 
V:4 bass 
V:1
"^Brightly" [DB]2 [DG]2 [CE]2 [A,D]2 | [DG]2 [B,G]2 [DA]4 | [DB]2 [DG]2 [CE]2 [A,D]2 | %3
 [DG]2 [EG]2 [DG]4 | [CE]2 [CG]2 [B,D]2 D2 | [DG]2 FG [DA]4 | [DB]2 [DG]2 [CE]2 [A,D]2 | %7
 [DG]2 [EG]2 [DG]4 | [GB]2 [Gd]2 [Gc]2 [GB]2 | [EA]2 [E^G]2 [EA]4 | [DA]2 [Cc]2 [DB]2 [EA]2 | %11
 [DG]2 [CE]2 [A,D]4 | [DB]2 [DG]2 [CE]2 [A,D]2 | [DG]2 [B,G]2 A4 | [GB]2 [Fd]2 [Ec]2 [DB]2 | %15
 AG z [B,G]4 x |] %16
V:2
 x8 | x8 | x8 | x8 | x6 D2 | x2 ^C2 x4 | x8 | x8 | x8 | x8 | x8 | x8 | x8 | x4 E2 F2 | x8 | %15
 D3 (c2 C) x2 |] %16
V:3
 [G,,G,]2 [B,,G,]2 [C,G,]2 [D,F,]2 | [B,,G,]2 [E,G,]2 [D,F,]4 | [G,,G,]2 [B,,G,]2 [C,G,]2 [D,F,]2 | %3
 [B,,G,]2 [C,C]2 [G,,B,]4 | [C,G,]2 [E,G,]2 G,2 [F,A,]2 | [E,B,]2 A,G, [D,F,]4 | %6
 [F,,G,]2 [B,,G,]2 [C,G,]2 [D,F,]2 | [B,,G,]2 [C,C]2 [G,,B,]4 | [G,D]2 [G,B,]2 [E,C]2 [G,D]2 | %9
 [C,E]2 [E,B,]2 [A,,C]4 | [F,A,]2 [E,G,]2 [D,F,]2 (E,F,) | [B,,G,]2 [C,G,]2 G,2 F,2 | %12
 [G,,G,]2 [B,,G,]2 [C,G,]2 [D,F,]2 | [B,,G,]2 [E,G,]2 [A,,C]4 | [G,,D]2 [B,,B,]2 [C,G,]2 [G,,G,]2 | %15
 [D,G,]2 [D,F,]2 [G,,G,]4 |] %16
V:4
 x8 | x8 | x8 | x8 | x4 G,2 x2 | x2 A,,2 x4 | x8 | x8 | x8 | x8 | x6 C,2 | x4 D,4 | x8 | x8 | x8 | %15
 x8 |] %16

